packages/kaspersky-hexa-ui-icons/src/iconsSVGs/24/OrganizationSolid.svg

<svg width="24" height="24" viewBox="0 0 24 24" fill="none" xmlns="http://www.w3.org/2000/svg">
<path fill-rule="evenodd" clip-rule="evenodd" d="M5 2C4.44772 2 4 2.44772 4 3V21C4 21.5523 4.44772 22 5 22H10C10.5523 22 11 21.5523 11 21V18H13V21C13 21.5523 13.4477 22 14 22H19C19.5523 22 20 21.5523 20 21V3C20 2.44772 19.5523 2 19 2H5ZM8 5.5C8.55228 5.5 9 5.94772 9 6.5V7.5C9 8.05228 8.55228 8.5 8 8.5C7.44772 8.5 7 8.05228 7 7.5V6.5C7 5.94772 7.44772 5.5 8 5.5ZM13 6.5C13 5.94772 12.5523 5.5 12 5.5C11.4477 5.5 11 5.94772 11 6.5V7.5C11 8.05228 11.4477 8.5 12 8.5C12.5523 8.5 13 8.05228 13 7.5V6.5ZM16 5.5C16.5523 5.5 17 5.94772 17 6.5V7.5C17 8.05228 16.5523 8.5 16 8.5C15.4477 8.5 15 8.05228 15 7.5V6.5C15 5.94772 15.4477 5.5 16 5.5ZM8 10.5C8.55228 10.5 9 10.9477 9 11.5V12.5C9 13.0523 8.55228 13.5 8 13.5C7.44772 13.5 7 13.0523 7 12.5V11.5C7 10.9477 7.44772 10.5 8 10.5ZM16 10.5C16.5523 10.5 17 10.9477 17 11.5V12.5C17 13.0523 16.5523 13.5 16 13.5C15.4477 13.5 15 13.0523 15 12.5V11.5C15 10.9477 15.4477 10.5 16 10.5ZM12 10.5C12.5523 10.5 13 10.9477 13 11.5V12.5C13 13.0523 12.5523 13.5 12 13.5C11.4477 13.5 11 13.0523 11 12.5V11.5C11 10.9477 11.4477 10.5 12 10.5Z" fill="black"/>
</svg>

<svg xmlns="http://www.w3.org/2000/svg" width="24" height="24" fill="none" viewBox="0 0 24 24"><path fill="#000" fill-rule="evenodd" d="M5 2c-.5523 0-1 .4477-1 1v18c0 .5523.4477 1 1 1h5c.5523 0 1-.4477 1-1v-3h2v3c0 .5523.4477 1 1 1h5c.5523 0 1-.4477 1-1V3c0-.5523-.4477-1-1-1zm3 3.5c.5523 0 1 .4477 1 1v1c0 .5523-.4477 1-1 1s-1-.4477-1-1v-1c0-.5523.4477-1 1-1m5 1c0-.5523-.4477-1-1-1s-1 .4477-1 1v1c0 .5523.4477 1 1 1s1-.4477 1-1zm3-1c.5523 0 1 .4477 1 1v1c0 .5523-.4477 1-1 1s-1-.4477-1-1v-1c0-.5523.4477-1 1-1m-8 5c.5523 0 1 .4477 1 1v1c0 .5523-.4477 1-1 1s-1-.4477-1-1v-1c0-.5523.4477-1 1-1m8 0c.5523 0 1 .4477 1 1v1c0 .5523-.4477 1-1 1s-1-.4477-1-1v-1c0-.5523.4477-1 1-1m-4 0c.5523 0 1 .4477 1 1v1c0 .5523-.4477 1-1 1s-1-.4477-1-1v-1c0-.5523.4477-1 1-1"/></svg>
